packages/icons/svg/Instruction_Payment_NoContact_24px.svg

<svg xmlns="http://www.w3.org/2000/svg" viewBox="0 0 24 24"><path d="M21 4H3a1 1 0 00-1 1v14a1 1 0 001 1h18a1 1 0 001-1V5a1 1 0 00-1-1zm-1 14H4V6h16z"/><path d="M6 14.5h4a.5.5 0 00.5-.5v-4a.5.5 0 00-.5-.5H6a.5.5 0 00-.5.5v4a.5.5 0 00.5.5zm.5-1v-1h1v1zm3-3v3h-1v-3zm-3 0h1v1h-1z"/><circle cx="12.75" cy="12" r=".75"/><path d="M16.33 15.61a.54.54 0 00.35.14.51.51 0 00.32-.15 5.17 5.17 0 000-7.2.5.5 0 10-.72.7 4.15 4.15 0 010 5.8.5.5 0 00.05.71z"/><path d="M14.5 14.08a.52.52 0 00.35.14.51.51 0 00.36-.15 3 3 0 000-4.14.5.5 0 00-.72.7 2 2 0 010 2.74.5.5 0 00.01.71z"/></svg>

<svg xmlns="http://www.w3.org/2000/svg" viewBox="0 0 24 24"><defs></defs><g id="Icon"><path  d="M21,4H3A1,1,0,0,0,2,5V19a1,1,0,0,0,1,1H21a1,1,0,0,0,1-1V5A1,1,0,0,0,21,4ZM20,18H4V6H20Z"/><path  d="M6,14.5h4a.5.5,0,0,0,.5-.5V10a.5.5,0,0,0-.5-.5H6a.5.5,0,0,0-.5.5v4A.5.5,0,0,0,6,14.5Zm.5-1v-1h1v1Zm3-3v3h-1v-3Zm-3,0h1v1h-1Z"/><circle  cx="12.75" cy="12" r="0.75"/><path  d="M16.33,15.61a.54.54,0,0,0,.35.14A.51.51,0,0,0,17,15.6a5.17,5.17,0,0,0,0-7.2.5.5,0,1,0-.72.7,4.15,4.15,0,0,1,0,5.8A.5.5,0,0,0,16.33,15.61Z"/><path  d="M14.5,14.08a.52.52,0,0,0,.35.14.51.51,0,0,0,.36-.15,3,3,0,0,0,0-4.14.5.5,0,0,0-.72.7,2,2,0,0,1,0,2.74A.5.5,0,0,0,14.5,14.08Z"/></g></svg>
